X:72
T:A Hornpipe
S:John Moore's Book 2
Z:Transcribed by Peter Kanssen 30-04-21
%%VWML: Moore1-4494-p55-0
F:http://www.vwml.org/record/Moore2/4494/p55
M:C
K:D
L:1/8
|:AFAF DFAd | dcec Aceg | gfaf fege | edgd dcBA | 
AFAF DFAd | dcec Aceg | gfaf fedc | e2d2 d2c2 :|
|:cd|efec Aceg | gfaf d2A2 | BdAd BdAd | efge dcBA | 
AFAF DFAd | dcec Aceg | gfaf fedc | e2d2d2:|
W:
%-------------
T:Saw ye my Father
S:John Moore's Book 2
Z:Transcribed by Peter Kanssen 30-04-21
%%VWML: Moore1-4494-p55-0
F:http://www.vwml.org/record/Moore2/4494/p55
M:2/4
K:Bb
L:1/8
|:B>c d>e | f2f>f | g2a>g | {b}a2 gf | b2 a>b | {a}g2 g>a |f4 :| 
|:{e}d>c da | {e}d2 c>B | {d}c>B c>d | {f}f2 f>g | {g}f2 d>f | {g}fe {e}dc | B8:|

